lib/brands/icons/brightcove.svg

<svg xmlns="http://www.w3.org/2000/svg" fill="none" aria-hidden="true" viewBox="0 0 48 48"><g id="brightcove-Icon"><g id="Group"><path id="Vector" fill="#94C039" fill-rule="evenodd" d="M30.9683 24.5854L30.9423 24.8023L30.873 24.993L29.2182 27.8637L27.2808 31.2113L27.1291 31.4628L26.9398 31.671L26.7301 31.8618L26.5138 32.0093L26.2365 32.1395L25.9894 32.2261L25.6848 32.2954L25.4065 32.3215H18.2143L18.0616 32.2954L17.9099 32.261L17.7833 32.1654L17.6629 32.0786L17.5682 31.9832L17.5058 31.8271L17.4478 31.671V31.333L17.537 31.1505L19.4113 27.8637L21.1014 24.8977L21.2592 24.6808L21.4431 24.464L21.6582 24.2818L21.9045 24.0997L22.1465 23.9782L22.425 23.8828L22.7033 23.8221H30.3611L30.474 23.8828L30.6301 23.9436L30.7255 24.0303L30.8469 24.1604L30.9076 24.2818L30.9423 24.4379L30.9683 24.5854ZM30.9683 22.0617L30.9423 21.8448L30.873 21.6541L29.2182 18.7748L27.2808 15.4098L27.1291 15.193L26.9398 14.9761L26.7301 14.7854L26.5138 14.6293L26.2365 14.5078L25.9894 14.4124L25.6848 14.3517L25.4065 14.3257H18.2143L18.0616 14.3517L17.9099 14.3864L17.7833 14.4471L17.6629 14.5339L17.5682 14.6642L17.5058 14.82L17.4478 14.9415V15.3144L17.537 15.4966L19.4113 18.7748L21.1014 21.7495L21.2592 21.9665L21.4431 22.1834L21.6582 22.3653L21.9045 22.5216L22.1465 22.6431L22.425 22.7385L22.7033 22.7992L23.0076 22.8252H30.1999L30.3611 22.7992L30.474 22.7645L30.6301 22.7038L30.7255 22.6084L30.8469 22.487L30.9076 22.3655L30.9423 22.218L30.9683 22.0617Z" clip-rule="evenodd"/><path id="Vector_2" fill="#D4247B" fill-rule="evenodd" d="M41.9996 24.5594L41.9735 24.7762L41.8781 24.967L40.2391 27.8465L38.2963 31.1941L38.1402 31.4456L37.9582 31.6624L37.7412 31.8443L37.5243 32.0007L37.2382 32.1307L36.9695 32.2175L36.6917 32.2868L36.3795 32.3129H29.1823L29.0245 32.2868L28.8709 32.2522L28.7442 32.1568L28.6228 32.07L28.5336 31.9746L28.4382 31.8185L28.407 31.6624L28.375 31.5063L28.407 31.3155L28.5016 31.1334L30.3872 27.8465L32.0869 24.8719L32.2344 24.6548L32.4252 24.438L32.642 24.256L32.8849 24.0736L33.1364 23.9522L33.4137 23.8568L33.6915 23.7961H41.3838L41.5052 23.8568L41.6613 23.9175L41.7567 24.0043L41.8435 24.1346L41.9389 24.2558L41.9733 24.4119L41.9996 24.5594ZM28.375 34.0733L28.407 34.2641L28.5016 34.4549L30.1381 37.3341L32.0869 40.7078L32.2344 40.9592L32.4252 41.1414L32.642 41.3322L32.8849 41.5229L33.1364 41.6444L33.4139 41.7312L33.6912 41.7919H41.384L41.5054 41.7312L41.6615 41.6705L41.7569 41.5751L41.8437 41.4536L41.9391 41.3322L41.9735 41.1761L41.9998 41.02L41.9738 40.8031L41.8784 40.647L39.9962 37.3341L38.2965 34.3855L38.1404 34.1427L37.9582 33.9258L37.7414 33.7351L37.5246 33.5876L37.2384 33.4661L36.9695 33.3707L36.6919 33.3014L36.3797 33.2753H29.1823L29.0245 33.3014L28.8709 33.3358L28.7442 33.4314L28.6228 33.5182L28.5336 33.6483L28.4382 33.7697L28.407 33.9258L28.375 34.0733Z" clip-rule="evenodd"/><path id="Vector_3" fill="#069BB3" fill-rule="evenodd" d="M16.6974 16.0342L20.2844 22.3046L20.411 22.5475L20.5012 22.8336L20.5644 23.1458V23.6923L20.5012 23.9785L20.411 24.2474L20.2844 24.4989L18.5517 27.4303L16.6654 30.7085L16.544 30.856L16.3594 30.9775L16.2379 31.0468L16.0845 31.0729H15.9267L15.7733 31.0468L15.6467 31.0121L15.493 30.9254L15.4038 30.83L15.3084 30.7085L11.7214 24.4382L11.568 24.152L11.4733 23.8831L11.4463 23.6055L11.4153 23.328L11.4465 23.0244L11.5046 22.7382L11.5999 22.4953L11.7214 22.2439L13.6709 18.8702L15.3404 16.0342L15.4618 15.8435L15.6145 15.722L15.7733 15.6613L15.9267 15.6269H16.0845L16.2067 15.6613L16.3594 15.722L16.4808 15.7913L16.6074 15.9128L16.6974 16.0342ZM10.2051 6.29488L10.0517 6.42517L9.92505 6.58104L8.25581 9.45168L6.30607 12.7907L6.18462 13.0684L6.09022 13.3111L6.0322 13.5972L6 13.875L6.0322 14.1784L6.09022 14.456L6.18462 14.7335L6.30607 15.0197L9.89284 21.2553L9.98847 21.4114L10.1099 21.4982L10.2365 21.5936L10.3631 21.628L10.5168 21.6543H10.6702L10.8226 21.6283L10.9762 21.5676L11.1351 21.4461L11.2565 21.29L13.1428 18.0118L14.8755 15.0804L15.0021 14.7942L15.0913 14.5513L15.1548 14.2735V13.684L15.0913 13.4062L15.0021 13.1289L14.8755 12.8514L11.288 6.60709L11.1987 6.45959L11.0716 6.36421L10.9453 6.26882L10.7919 6.24276L10.6704 6.2081H10.517L10.3634 6.24276L10.2051 6.29488Z" clip-rule="evenodd"/></g></g></svg>

<svg xmlns="http://www.w3.org/2000/svg" fill="none" aria-hidden="true" viewBox="0 0 48 48"><g fill-rule="evenodd" clip-rule="evenodd"><path fill="#94C039" d="m30.968 24.585-.026.217-.069.191-1.655 2.87-1.937 3.348-.152.252-.19.208-.209.19-.216.148-.277.13-.248.087-.304.07-.278.026h-7.193l-.152-.027-.152-.034-.127-.096-.12-.086-.095-.096-.062-.156-.058-.156v-.338l.089-.182 1.874-3.287 1.69-2.966.158-.217.184-.217.215-.182.246-.182.242-.122.279-.095.278-.06h7.658l.113.06.156.06.096.087.12.13.062.122.034.156.026.147Zm0-2.523-.026-.217-.069-.19-1.655-2.88-1.937-3.365-.152-.217-.19-.217-.209-.19-.216-.157-.277-.121-.248-.096-.304-.06-.278-.026h-7.193l-.152.026-.152.034-.127.061-.12.087-.095.13-.062.156-.058.121v.373l.089.183 1.874 3.278 1.69 2.975.158.216.184.217.215.182.246.157.242.121.279.095.278.061.305.026H30.2l.161-.026.113-.034.156-.061.096-.096.12-.121.062-.121.034-.148.026-.156Z"/><path fill="#D4247B" d="m42 24.56-.026.216-.096.191-1.639 2.88-1.943 3.347-.156.252-.182.216-.217.182-.217.157-.286.13-.269.087-.277.069-.313.026h-7.197l-.157-.026-.154-.035-.127-.095-.121-.087-.09-.095-.095-.157-.031-.156-.032-.156.032-.19.095-.183 1.885-3.287 1.7-2.974.147-.217.191-.217.217-.182.243-.182.251-.122.278-.095.277-.06h7.693l.121.06.156.06.096.087.087.13.095.122.034.156.027.147Zm-13.625 9.513.032.191.095.19 1.636 2.88 1.949 3.374.147.251.191.182.217.191.243.19.251.122.278.087.277.06h7.693l.121-.06.156-.06.096-.096.087-.121.095-.122.035-.156.026-.156-.026-.217-.096-.156-1.882-3.313-1.7-2.949-.156-.242-.182-.217-.217-.19-.216-.148-.287-.122-.269-.095-.277-.07-.312-.026h-7.198l-.157.026-.154.035-.127.095-.121.087-.09.13-.095.122-.031.156-.032.147Z"/><path fill="#069BB3" d="m16.697 16.034 3.587 6.27.127.244.09.286.063.312v.546l-.063.287-.09.268-.127.252-1.732 2.931-1.887 3.279-.121.147-.185.121-.121.07-.154.026h-.157l-.154-.026-.126-.035-.154-.087-.09-.095-.095-.121-3.587-6.27-.153-.287-.095-.269-.027-.277-.03-.278.03-.304.059-.286.095-.243.121-.251 1.95-3.374 1.67-2.836.12-.19.153-.122.16-.06.153-.035h.157l.123.034.152.061.122.07.126.12.09.122Zm-6.492-9.74-.153.131-.127.156-1.67 2.87-1.949 3.34-.121.277-.095.243-.058.286-.032.278.032.303.058.278.095.277.121.287 3.587 6.235.095.156.122.087.127.096.126.034.154.026h.153l.153-.026.153-.06.16-.122.12-.156 1.887-3.278 1.732-2.932.127-.286.09-.243.063-.277v-.59l-.064-.278-.089-.277-.127-.278-3.587-6.244-.09-.147-.126-.096-.127-.095-.153-.026-.122-.035h-.153l-.154.035-.158.052Z"/></g></svg>
